icons/archive-drawer-line.svg

<svg xmlns="http://www.w3.org/2000/svg" width="24" height="24" fill="none"><g clip-path="url(#a)"><g><path fill="#121212" d="M3 2.992C3 2.444 3.445 2 3.993 2H20.007C20.2696 2.00183 20.521 2.1069 20.7068 2.29251C20.8926 2.47813 20.9979 2.72938 21 2.992V21.008C20.9997 21.2712 20.895 21.5235 20.7088 21.7095C20.5226 21.8955 20.2702 22 20.007 22H3.993C3.73038 21.9982 3.47902 21.8931 3.29322 21.7075C3.10742 21.5219 3.00209 21.2706 3 21.008V2.992ZM19 11V4H5V11H19ZM19 13H5V20H19V13ZM9 6H15V8H9V6ZM9 15H15V17H9V15Z"/></g></g><defs><clipPath id="a"><rect width="24" height="24" fill="white"/></clipPath></defs></svg>

<svg width="24" height="24" fill="none" xmlns="http://www.w3.org/2000/svg"><g clip-path="url(#a)"><path d="M3 2.992C3 2.444 3.445 2 3.993 2h16.014a1 1 0 0 1 .993.992v18.016a.993.993 0 0 1-.993.992H3.993A1 1 0 0 1 3 21.008V2.992ZM19 11V4H5v7h14Zm0 2H5v7h14v-7ZM9 6h6v2H9V6Zm0 9h6v2H9v-2Z" /></g><defs><clipPath id="a"><path fill="#fff" d="M0 0h24v24H0z"/></clipPath></defs></svg>
